X:1
T: Anthony Frawley's Jig
N:
C:
S:
A:
O:
R:
M:6/8
K:G
I:speed 180
%W:
% voice 1 (1 lines, 45 notes)
K:G
M:6/8
L:1/16
A2 |G2 E2 D2 G2 B2 A2 G2 E2 D2 G4 A2 G2 E2 D2 G2 A2 B2 d2 B2 A2 B4 A2 |G2 E2 D2 G2 A2 B2 d2 e2 f2 g4 a2 b2 a2 g2 e2 g2 e2 d2 B2 A2 B4 G2 |
%W:
% voice 1 (1 lines, 44 notes)
G2 E2 D2 G2 B2 A2 G2 E2 D2 G4 A2 G2 E2 D2 G2 A2 B2 d2 B2 A2 B4 A2 |G2 E2 D2 G2 A2 B2 d2 e2 f2 g4 a2 b2 a2 g2 e2 g2 e2 d2 B2 A2 B4 G2 |
%W:
% voice 1 (1 lines, 43 notes)
d4 d2 e2 d2 B2 d2 e2 f2 g2 f2 e2 d4 d2 e2 d2 B2 d2 B2 G2 G2 A2 B2 |d4 d2 e2 d2 B2 d2 e2 f2 g4 a2 b2 a2 g2 e2 g2 e2 d2 B2 A2 B4 G2 |
%W:
% voice 1 (1 lines, 44 notes)
d2 B2 d2 e2 d2 B2 d2 e2 f2 g2 f2 e2 d2 B2 d2 e2 d2 B2 d2 B2 G2 G2 A2 B2 |d4 d2 e2 d2 B2 d2 e2 f2 g4 a2 b2 a2 g2 e2 g2 e2 d2 B2 A2 G4 ||
